X: 26
T:Calliope House
M:6/8
L:1/8
Q:180
R:Jig
K:D
A|"D"dAA fAA|dAA fed|"Em"Bee e2d|efe B3|
"D"ABA A2F|A2B d2e!|
1 f2f fed|"A"e3-e2:|2 fgf "A"edc|"D"d3-dfg|:
"D"a3 faa|eaa def|"Em"g3 fgf|edB B3|
"D"ABA A2F|A2B d2e|
1 f2f fed|"A"e3-efg:|2 fgf "A"edc|"D"d3-d2|
